X:1
T:Gravi pene in amor
T:Gravi pene in amor
T:Jacques Arcadelt
T:Source : Il primo libro di madrigali a 3 voci---Venetia---A.Gardano---1559. Editor : André Vierendeels (21/10/14) 
C:Jacques Arcadelt
%%score [ 1 2 3 ]
L:1/8
Q:1/4=120
M:2/2
K:C
V:1 treble nm="Canto" snm="C"
V:2 treble-8 nm="Tenor" snm="T"
V:3 bass nm="Bass" snm="B"
V:1
 E6 E2 | D4 E2 F2 | G8 | z2 G2 G2 F2 | E4 D4 | z2 G2 E3 F | G2 A2 G4 | z2 c2 B2 A2 | B2 B2 G2 G2 | %9
w: Gra- vi|pe- ne'in a-|mor|si pro- van|mol- te,|di che pro-|va- t'io n'ho,|di che pro-|va- t'io n'ho la|
 A2 B2 c4 | B2 c4 B2 | c4 z2 G2 | A2 c2 B2 G2 | B2 B2 c2 A2- | AG G4 F2 | G4 G2 A2- | %16
w: mag- gior par-||te, et|quel- l'in dan- no|mio si ben rac-|* * col- *|te, rac- col-|
 A2 GF E2 G2- | G2 F2 G2 E2 | C2 D2 E2 c2- | c2 BA B2 G2 | A2 G2 E2 c2- | c2 B2 A2 G2 | A4 G4- | %23
w: * * * te ch'io|_ ne pos- so|ra- gio- nar co-|* * * * me|per ar- te, co-|* me per _|ar- te,|
 G4 z4 | E4 G4- | G2 A2 F4 | E2 E2 A4- | A2 G2 F2 E2 | D4 C2 E2 | F2 G2 A2 GF | E2 c2 B2 G2 | %31
w: _|pe- ro|_ s'io di-|co et ho|_ det- t'al- tre|vol- te, et|quan- d'in vo- * *|ce, et quan- d'in|
 B2 B2 c3 B | AG A4 GF | E2 G2 G2 E2 | A4 G4 | z2 G2 A2 c2 | B3 B A4 | G2 G2 G2 G2 | c4 B4- | %39
w: vi- ve car- *||te, ch'un mal sia|le- ve,|un' al- tro'a-|cer- b'e fe-|ro, da- te cre-|den- za,|
 B4 z2 G2 | G2 G2 c4- | c2 B2 A2 G2 | F2 DE FG A2- |"^#" AG G3 F/E/ F2 | G8 | z2 G2 G2 G2 | c6 B2 | %47
w: _ da-|te cre- den-|* z'al mio giu-|di- tio _ _ _ _|_ _ ve- * * *|ro,|da- te cre-|den- z'al|
 A2 G2 F2 DE | FG A3 G G2- |"^#""^#""^#" GFFE/F/ G4 | G8- | G8- | G8 |] %53
w: mio giu di- tio _|_ _ _ _ ve-||ro.|_||
V:2
 c6 c2 | B4 c2 d2 | e2 e2 e2 d2 | e3 d/c/ Bc d2- | dc c4 B2 | c4 z2 c2 | B2 c2 d2 d2 | %7
w: Gra- vi|pe- ne'in a-|mor si pro- van|mol- * * * * *||te, di|che pro- va- t'io|
 e2 A2 B2 c2 | d2 B2 c3 d | ef g2 g2 f2 | g2 fe dc d2 | c8 | z2 c2 e3 f | g2 g2 c3 d | e2 d2 c4 | %15
w: n'ho, di che pro-|va- t'io n'ho- _|_ _ la mag- gior|par- * * * * *|te,|et quel- l'in|dan- no mio si|ben rac- col-|
 d4 z2 c2- | c2 B2 c2 G2 | c2 d2 e4 | z2 g4 g2 | e4 d2 c2- | c2 B2 c2 c2 | d3 e fd e2 | c2 f4 ed | %23
w: te, ch'io|_ ne pos- so|ra- gio- nar,|ch'io ne|pos- so ra-|* gio- nar co-|me _ _ _ _|per ar- * *|
 e4 z4 | c4 e4- | e2 c2 d4 | c2 c2 f4- | f2 e2 d2 c2- | cB/A/ B2 c3 B | A2 G2 z2 B2 | c3 d e4 | %31
w: te,|pe- ro|_ s'io di-|co et ho|_ det- t'al- tre|_ _ _ _ vol- *|* te, et|quan- d'in vo-|
 d2 g2 e2 c2 | d2 c3 B/A/ B2 | c4 z2 c2 | c2 A2 e4 | d2 g2 g2 f2 | g3 f e2 dc | d4 e2 g2- | %38
w: ce, et quan- d'in|vi- ve _ _ car-|te, ch'un|mal sia le-|ve, un' al- tro'a-|cer- * * * *|* b'e fe-|
 g2 f2 g2 d2 | d2 d2 g3 f | e3 d c2 d2 | e4 A2 c2 | d2 f2 fe dc | d2 B2 A4 | G2 d2 d2 d2 | %45
w: * * ro, da-|te cre- den- z'al|mio giu- di- tio|ve- ro, al|mio giu- di- * * *|* tio ve-|ro, da- te cre-|
 g3 f e3 d | c2 d2 e4 | A2 c2 d2 f2 | fe dc d2 B2 | A4 G3 A | BG c3 d e2- | ed c4 BA | B8 |] %53
w: den- z'al mio giu-|di- tio ve-|ro, al mio giu-|di- * * * * tio|ve- ro _|_ _ ve- * *||ro.|
V:3
 C,6 C,2 | G,4 E,2 D,2 | C,2 C2 C2 B,2 | C4 G,2 D,2 | E,2 C,2 G,4 | C,8 | z4 G,4 | %7
w: Gra- vi|pe- ne'in a-|mor si pro- van|mol- te, si|pro- van mol-|te,|di|
 E,2 F,2 G,2 A,2 | G,4 z2 C2 | C2 G,2 A,4 | G,8 | C,8 | F,4 z4 | z2 G,2 A,3 B, | C2 B,2 A,4 | %15
w: che pro- va- t'io|n'ho la|mag- gior par-|||te,|et quel- l'in|dan- no mio|
 G,4 E,2 F,2 | D,4 C,4 | z4 z2 C2- | C2 B,2 C2 C,2 | E,2 F,2 G,2 E,2 | F,2 G,2 A,4 | %21
w: si ben rac-|col- te|ch'io|_ ne pos- so|ra- gio- nar co-|me per ar-|
 G,2 G,2 F,2 E,2 | F,4 C,4- | C,4 z4 | C,4 C,4- | C,2 F,2 D,E, F,G, | A,2 A,2 F,4- | %27
w: te, co- me per|ar- te,|_|pe- ro|_ s'io di- * * *|co et ho|
 F,2 C,2 D,2 E,2 | F,2 G,2 C,4 | z2 E,2 F,2 G,2 | A,4 G,2 C2 | B,2 G,2 A,3 G, | F,3 E, D,4 | C,8 | %34
w: _ det- t'al- tre|vol- * te,|et quan- d'in|vo- ce, et|quan- d'in vi- ve|car- * *|te,|
 z4 z2 G,2 | G,2 E,2 A,4 | G,2 G,2 A,2 C2 | C2 B,2 CB,A,G, | A,4 G,4 |"^#" z2 G,2 G,2 G,2 | %40
w: ch'un|mal sia le-|ve, un al- tro'a-|cer- b'e fe- * * *|* ro,|da- te cre-|
 C6 B,2 | A,2 G,2 F,2 E,2 | D,8- | D,8 | G,4 G,4 | G,2 G,2 C4- | C2 B,2 A,2 G,2 | F,2 E,2 D,4- | %48
w: den- z'al|mio giu- di tio|ve-||ro, da-|te cre- den-|* z'al mio giu-|di- tio ve-|
 D,8- | D,4 E,3 F, | G,2 C,2 C,3 D, | E,2 F,2 G,4 | G,8 |] %53
w: ||ro, al mio giu-|di- tio ve-|ro.|

